X:170
T:A vos, douce debonaire
C:Manuscript de Montpellier (XIIIe siècle)
R:Motet
M:6/8
L:1/8
Q:1/4=162
K:C 
V:1
f2e d2e | fed c2B | A2B c2B/2A/2 | G2A c2c | 
ded c2d | fed c3/2z3/2 | F2G A2G | B2B c2c | 
d2c A2G | A2B c2c | fed e2c | A2B A2B | 
d2e f2e | dcd e3/2z3/2 | fed c2A | FGE F2F | 
G2A c2B | A/2G/2AF GAz | F2A c2B | ded c2c | 
c2d/2e/2 fed | e2d c3/2z3/2 | c2A F2G | ABc B2B | 
c2d e2f | edc B3/2z3/2 | c3/2z3/2 d2e | f2d edc | 
d2d G2A | cBA G2d | dcB c3 |]
V:2
F3 G3 | F3/2z3/2 A2G | A2G F3/2z3/2 | G3 F3 | 
D3/2z3/2 F2E | F2G F3/2z3/2 | F3 D3 | E3/2z3/2 F2E | 
D2C D3/2z3/2 | D3 C3 | F3/2z3/2 E2G | A2G A3/2z3/2 | 
G3 F3 | G3/2z3/2 A2G | F2G F3/2z3/2 | F2A c2c | 
d3/2z3/2 c3 | c3 d3/2z3/2 | f2e c2e | d3/2z3/2 c3 | 
c3 F3/2z3/2 | A2G c2c | c3/2z3/2 c3 | A3 B3/2z3/2 | 
c2B A2G | A3/2z3/2 B3 | A3 G3/2z3/2 | F2G A2-A/2z/2 | 
z3 G3 | F3 G3/2z3/2 | G3 F3 |]





